COLOR/action 16/16/transform-rotate.svg

<svg height="16" viewBox="0 0 16 16" width="16" xmlns="http://www.w3.org/2000/svg"><path d="m13.763361 12.967761h-11.9287426v-9.5429939h11.9287426z" fill="#e95420" opacity=".6" stroke-width="1.192874"/><path d="m15.41514 8.7751848-9.8527906 6.7243892-5.37951164-7.8822325 9.85279124-6.72438958z" fill="#e95420" stroke-width="1.192874"/><path d="m10.035629.89340648-9.85227974 6.72447932.1732813.2548255 9.67899844-6.6065316 5.205719 7.627289.173282-.1179476z" fill="#fff" opacity=".3" stroke-width=".745546"/><path d="m.35663056 7.4999381-.1732813.1179477 5.37900104 7.8821142 9.8522797-6.7244789-.173282-.2548256-9.6789977 6.6065315z" opacity=".2" stroke-width=".745546"/><g fill="#1a7fd4" stroke-width=".730385" transform="matrix(-.74554641 0 0 -.74554641 -17.833907 37.705062)"><path d="m-25.746549 42.332018c.335247.529529.660257 1.079372.974322 1.649072.314066.575544.598198 1.14391.851641 1.699002h-1.46077v.272468c0 .768365-.03027 1.57059-.382311 2.241084-.351316.670493-1.077033 1.138374-2.172611 1.138374h-2.556348v-.730385h2.556348c.912982 0 1.285365-.28663 1.526391-.747504.241758-.460872.299572-1.163115.299572-1.902995v-.271042h-1.46077a31.45769 31.45769 0 0 1 .861626-1.699002c.314796-.5697.634967-1.119543.96291-1.649072z"/><path d="m-43.555393 37.028166c-.335247-.529529-.660257-1.079372-.974322-1.649072-.314066-.575544-.598198-1.14391-.851641-1.699002h1.46077v-.272468c0-.768365.03027-1.57059.382311-2.241084.351316-.670493 1.077033-1.138374 2.172611-1.138374h2.556348v.730385h-2.556348c-.912982 0-1.285365.28663-1.526391.747504-.241758.460872-.299572 1.163115-.299572 1.902995v.271042h1.46077a31.45769 31.45769 0 0 1 -.861626 1.699002c-.314796.5697-.634967 1.119543-.96291 1.649072z"/></g></svg>

<?xml version="1.0" encoding="UTF-8" standalone="no"?>
<svg
   xmlns:dc="http://purl.org/dc/elements/1.1/"
   xmlns:cc="http://creativecommons.org/ns#"
   xmlns:rdf="http://www.w3.org/1999/02/22-rdf-syntax-ns#"
   xmlns:svg="http://www.w3.org/2000/svg"
   xmlns="http://www.w3.org/2000/svg"
   xmlns:sodipodi="http://sodipodi.sourceforge.net/DTD/sodipodi-0.dtd"
   xmlns:inkscape="http://www.inkscape.org/namespaces/inkscape"
   height="16"
   viewBox="0 0 16 16"
   width="16"
   version="1.1"
   id="svg16"
   sodipodi:docname="transform-rotate.svg"
   inkscape:version="0.92.4 (5da689c313, 2019-01-14)">
  <metadata
     id="metadata22">
    <rdf:RDF>
      <cc:Work
         rdf:about="">
        <dc:format>image/svg+xml</dc:format>
        <dc:type
           rdf:resource="http://purl.org/dc/dcmitype/StillImage" />
        <dc:title></dc:title>
      </cc:Work>
    </rdf:RDF>
  </metadata>
  <defs
     id="defs20" />
  <sodipodi:namedview
     pagecolor="#ffffff"
     bordercolor="#666666"
     borderopacity="1"
     objecttolerance="10"
     gridtolerance="10"
     guidetolerance="10"
     inkscape:pageopacity="0"
     inkscape:pageshadow="2"
     inkscape:window-width="1920"
     inkscape:window-height="1016"
     id="namedview18"
     showgrid="false"
     inkscape:zoom="9.8333333"
     inkscape:cx="12"
     inkscape:cy="12"
     inkscape:window-x="0"
     inkscape:window-y="27"
     inkscape:window-maximized="1"
     inkscape:current-layer="svg16" />
  <path
     d="M 13.763361,12.967761 H 1.8346184 V 3.4247671 H 13.763361 Z"
     id="path2"
     inkscape:connector-curvature="0"
     style="opacity:0.6;fill:#e95420;stroke-width:1.19287431" />
  <path
     d="M 15.41514,8.7751848 5.5623494,15.499574 0.18283776,7.6173415 10.035629,0.89295192 Z"
     id="path4"
     inkscape:connector-curvature="0"
     style="fill:#e95420;stroke-width:1.19287431" />
  <path
     d="M 10.035629,0.89340648 0.18334926,7.6178858 0.35663056,7.8727113 10.035629,1.2661797 15.241348,8.8934687 15.41463,8.7755211 Z"
     id="path6"
     inkscape:connector-curvature="0"
     style="opacity:0.3;fill:#ffffff;stroke-width:0.7455464" />
  <path
     d="M 0.35663056,7.4999381 0.18334926,7.6178858 5.5623503,15.5 15.41463,8.7755211 15.241348,8.5206955 5.5623503,15.127227 Z"
     id="path8"
     inkscape:connector-curvature="0"
     style="opacity:0.2;stroke-width:0.7455464" />
  <g
     transform="matrix(-0.74554641,0,0,-0.74554641,-17.833907,37.705062)"
     id="g14"
     style="fill:#1a7fd4;stroke-width:0.73038501">
    <path
       d="m -25.746549,42.332018 c 0.335247,0.529529 0.660257,1.079372 0.974322,1.649072 0.314066,0.575544 0.598198,1.14391 0.851641,1.699002 h -1.46077 v 0.272468 c 0,0.768365 -0.03027,1.57059 -0.382311,2.241084 -0.351316,0.670493 -1.077033,1.138374 -2.172611,1.138374 h -2.556348 v -0.730385 h 2.556348 c 0.912982,0 1.285365,-0.28663 1.526391,-0.747504 0.241758,-0.460872 0.299572,-1.163115 0.299572,-1.902995 v -0.271042 h -1.46077 a 31.45769,31.45769 0 0 1 0.861626,-1.699002 c 0.314796,-0.5697 0.634967,-1.119543 0.96291,-1.649072 z"
       id="path10"
       inkscape:connector-curvature="0" />
    <path
       d="m -43.555393,37.028166 c -0.335247,-0.529529 -0.660257,-1.079372 -0.974322,-1.649072 -0.314066,-0.575544 -0.598198,-1.14391 -0.851641,-1.699002 h 1.46077 v -0.272468 c 0,-0.768365 0.03027,-1.57059 0.382311,-2.241084 0.351316,-0.670493 1.077033,-1.138374 2.172611,-1.138374 h 2.556348 v 0.730385 h -2.556348 c -0.912982,0 -1.285365,0.28663 -1.526391,0.747504 -0.241758,0.460872 -0.299572,1.163115 -0.299572,1.902995 v 0.271042 h 1.46077 a 31.45769,31.45769 0 0 1 -0.861626,1.699002 c -0.314796,0.5697 -0.634967,1.119543 -0.96291,1.649072 z"
       id="path12"
       inkscape:connector-curvature="0" />
  </g>
</svg>
